packages/icons/src/brands/linkedin-alt.svg

<svg aria-label="linkedin logo" viewBox="0 0 18 18" xmlns="http://www.w3.org/2000/svg">
<path d="M0 2.27673C0 1.01933 1.01933 0 2.27673 0C3.53459 0 4.55346 1.01887 4.55346 2.27673C4.55346 3.53413 3.53413 4.55346 2.27673 4.55346C1.01887 4.55346 0 3.53459 0 2.27673Z" />
<path d="M18 18H14.1429V11.3333C14.1429 10.2912 13.2081 9.4465 12.1661 9.4465C11.124 9.4465 10.2793 10.2912 10.2793 11.3333V18H6.42857V6.42853H10.2793V8.18864C10.9082 7.13203 12.2793 6.42763 13.424 6.42763C15.8554 6.42763 18 8.3987 18 10.8301V18Z" />
<path d="M0 18H3.85714V6.42857H0V18Z" />
</svg>

<svg xmlns="http://www.w3.org/2000/svg" aria-label="linkedin logo" viewBox="0 0 18 18"><path d="M0 2.277a2.277 2.277 0 1 1 4.553 0 2.277 2.277 0 0 1-4.553 0zM18 18h-3.857v-6.667c0-1.042-.935-1.886-1.977-1.886a1.887 1.887 0 0 0-1.887 1.886V18H6.43V6.429h3.85v1.76c.63-1.057 2-1.761 3.145-1.761 2.431 0 4.576 1.97 4.576 4.402V18zM0 18h3.857V6.429H0z"/></svg>
